X: 236
T: Da niaochuang
%%abc-version 2.0
%%abcx-abcm2ps-target-version 5.9.1 (29 Sep 2008)
%%abc-creator hum2abc beta
%%abcx-conversion-date 2013/10/02 07:52:29
%%abc-edited-by Helmut Schaffrath
%%humdrum-veritas 1070473917
%%humdrum-veritas-data 1317864273
%%continueall 1
%%barnumbers 0
L: 1/8
M: 2/4
K: A
c2c e [I:setbarnb 1]| 
f2c2 | 
c B A G | 
f eF2 | 
f2e2 | 
f2e2 | 
f e d c | 
B4 | 
f e d c | 
B3A | 
F E F A | 
B4 |]  



